X:56
T:Humours of Ballingarry, The
R:jig
Z:Julie Ross
M:6/8
L:1/8
K:G
BGG dGG|cAG FGA|BAG BdB|cAF G2A|
BGG dGG|cAG FGA|def gdB|1 cAF G2A :|2 cAF G2B||
|: def ~g3|edc BAG|A2a aga|bge edB|
def gfg|edc BAB|GB/c/d gdB|1 cAF G2B :|2 cAF G3 ||
